collectives/static/img/icon/ionicon/md-images.svg

<svg enable-background="new 0 0 512 512" viewBox="0 0 512 512" xmlns="http://www.w3.org/2000/svg"><path d="m457.6 140.2-82.5-4-4.8-53.8c-1-11.3-11.1-19.2-22.9-18.3l-295.9 24.3c-11.8 1-20.3 10.5-19.4 21.7l21.2 235.8c1 11.3 11.2 19.2 22.9 18.3l15-1.2-2.4 45.8c-.6 12.6 9.2 22.8 22.4 23.5l330.1 15.7c13.2.6 24.1-8.6 24.8-21.2l13.9-263.3c.6-12.5-9.3-22.7-22.4-23.3zm-354.9 5.3-7.1 134.8-17.5 24.7-16.1-178c0-.2 0-.3 0-.5s0-.3 0-.5c1-5 4.4-9 9.6-9.4l261-21.4c5.2-.4 9.7 3 10.5 7.9 0 .2.3.2.3.4 0 .1.3.2.3.4l2.7 30.8-219-10.5c-13.2-.4-24.1 8.8-24.7 21.3zm334 236.9-84.8-99.5-37.4 34.3-69.2-80.8-122.7 130.7 10.4-199.1s0-.3 0-.4c1-5.4 6.2-9.3 11.9-9l291.2 14c5.8.3 10.3 4.7 10.4 10.2 0 .2.3.3.3.5z"/><path d="m384 256c17.6 0 32-14.4 32-32s-14.3-32-32-32c-17.6 0-32 14.3-32 32s14.3 32 32 32z"/></svg>

<?xml version="1.0" encoding="utf-8"?>
<!-- Generator: Adobe Illustrator 18.1.1, SVG Export Plug-In . SVG Version: 6.00 Build 0)  -->
<svg version="1.1" id="Layer_1" xmlns="http://www.w3.org/2000/svg" xmlns:xlink="http://www.w3.org/1999/xlink" x="0px" y="0px"
	 viewBox="0 0 512 512" enable-background="new 0 0 512 512" xml:space="preserve">
<g>
	<path d="M457.6,140.2l-82.5-4l-4.8-53.8c-1-11.3-11.1-19.2-22.9-18.3L51.5,88.4c-11.8,1-20.3,10.5-19.4,21.7l21.2,235.8
		c1,11.3,11.2,19.2,22.9,18.3l15-1.2l-2.4,45.8c-0.6,12.6,9.2,22.8,22.4,23.5L441.3,448c13.2,0.6,24.1-8.6,24.8-21.2L480,163.5
		C480.6,151,470.7,140.8,457.6,140.2z M102.7,145.5l-7.1,134.8L78.1,305L62,127c0-0.2,0-0.3,0-0.5s0-0.3,0-0.5c1-5,4.4-9,9.6-9.4
		l261-21.4c5.2-0.4,9.7,3,10.5,7.9c0,0.2,0.3,0.2,0.3,0.4c0,0.1,0.3,0.2,0.3,0.4l2.7,30.8l-219-10.5
		C114.2,123.8,103.3,133,102.7,145.5z M436.7,382.4l-84.8-99.5l-37.4,34.3l-69.2-80.8L122.6,367.1L133,168c0,0,0-0.3,0-0.4
		c1-5.4,6.2-9.3,11.9-9l291.2,14c5.8,0.3,10.3,4.7,10.4,10.2c0,0.2,0.3,0.3,0.3,0.5L436.7,382.4z"/>
	<path d="M384,256c17.6,0,32-14.4,32-32s-14.3-32-32-32c-17.6,0-32,14.3-32,32S366.3,256,384,256z"/>
</g>
</svg>
